X:436
T: Einquartierungs-Erlebnis (155a), S. 338
N: T0324
O: Luxemburg
S: Singendes Volk, Esch-Alzette 1937, posth.]
N: Straen, fff Witry, 6.12.1932,
N: (155b)- Blascheid, hhh Johann Hitting
R: historische, Kriegs- und Soldatenlieder, Liebeslied]
M: 6/8
L: 1/16
K: G
D2 | B2A2G2G2A2B2 | A4D2D4
D2 | c2B2A2eed2c2 | B4D2D4
D2 | D4D2D2G2e2 | d6d2c2
d2 | c4c2c2B2A2 | B6B2A2
G2 | F4A2c4e2 | d6d2B2
d2 | c4D2B4A2 | G6z4

@@@ Tune index: 8490
